!!!OTL: WILLKOMMEN UNS
!!!ARE: Europa, Mitteleuropa, Deutschland
!!!SCT: F0986
!!!YEM: Copyright 1995, estate of Helmut Schaffrath.
**kern
*ICvox
*Ivox
*M4/4
*k[f#c#]
*D:
{4A
=1
4.A
8F#
4F#
4d
=2
4.c#
8B
4A}
{4B
=3
4G
4A
4F#
8A
8G
=4
2E
4r}
{8E
8F#
=5
4G
4A
4B
4c#
=6
4.d
8e
4f#}
{4e
=7
4d
4c#
4G
8A
8B
=8
2A
4r}
{4d
=9
4.f#
8e
4d
4c#
=10
2d
4r}
==
!!!AGN: Natur -, Jahreszeiten - Lied, Fruehling
!!!ONB: ESAC (Essen Associative Code) Database: FINK
!!!AMT: simple quadruple
!!!AIN: vox
!!!EED: Helmut Schaffrath
!!!EEV: 1.0
*-
